X:1
T: The Five-Leaved Clover
C:
R:Reel
Q: 232
K:G
M:4/4
L:1/8
ed|cA AB AG EF|GE AE GE DF|EA AB cB cd|ea ge df ed|
cA AB AG EF|GE AF GF ED|EA AB cB cd|ea ge d2 cd|
|:ea ab ag ef|ge ae ge de|c2 ce d2 df|ea ge d2 cd|
ea ag ag ef|ge ae ge de|cB cd ef gb|af ge df ed:|
cA AB AG EF|GE AE GE DF|EA AB cB cd|ea ge df ed|
cA AB AG EF|GE AF GF ED|EA AB cB cd|ea ge d2||
